X:1794
L:1/8
M:2/2
K:G
 G2 ([G-B][GA]) [GB]2 ([G-B][GA]) | [G_B]-[GB][GB][GA] BAGB | dedB G2 [GB]2 | 
[M:6/4] dBGB AG[GB][GA] [GB]2 BA |[M:2/2] G2 ([G-B][GA]) [GB]2 ([G-B][GA]) | 
 [G_B]-[GB][GB][GA] BAGB | dedB G2 [GB]2 | dBGB A(G [GB]2) || (A d2) e f2 d2 | 
 [Bg]2 [Bg]2 [Bg]gag | fd [df]2 (A d2) e | [Bg]2 [Bg]2 [Bg]age | dBAc B(G [GB]2) | (A d2) e f2 d2 | 
 [Bg]2 [Bg]2 [Bg]gag | fd [df]2 (A d2) e | [Bg]2 [Bg]2 [Bg]age | 
[M:6/4] dBAc B(G[GB])[GA] [GB]2 BA ||

